X:1
T:Title
%%score { ( 1 4 5 ) | ( 2 3 ) }
L:1/8
M:4/4
K:Ab
V:1 treble nm="Grand Piano"
V:4 treble 
V:5 treble 
V:2 bass 
V:3 bass 
V:1
 z4 z2 z[Q:1/4=100] [CE] | [CE]2 [Ec]2 [EG]2 [EB]2 | [FA]>[DF] [CE]4 z [CE] | %3
 [DF]2 [EG]2 [EA]2 [FB]2 |[M:7/8] A- A3 G2 z |[M:1/8] E |[M:4/4] [CE]2 [Ec]2 [DB]2 [Ec]2 | %7
 [Fd]>F F4 F2 | EF .[A,EG]2 [DB]2 [Ec]2 |[M:3/4] [A,CA]6 |[M:1/4] E>=D |[M:4/4] z2 B,B, z dcG | %12
 .C2 A2 z4 | z2 DE z G A>F | c2 B2 B2 z2 | e6 z2 |[M:5/4] e2 d2 z2 z4 | %17
[M:4/4] [Ec][=D_c][Fd][E=c] [DF]2 [_DG]2 |[M:7/8] [CA]-[CA]-[CA]- [CA]3 z |] %19
V:2
 z4 z2 z [A,,A,] | [A,,A,]2 [A,,A,]2 [C,A,]2 [C,A,]2 | [D,A,]>[D,A,] [A,,A,]4 z [A,,A,] | %3
 [D,A,]2 [D,B,]2 [C,A,]2 [D,A,]2 |[M:7/8] C- C3 z z2 |[M:1/8] [E,G,D] | %6
[M:4/4] [A,,A,]2 [A,,A,]2 [A,,A,]2 [A,,A,]2 | [D,A,]>[D,A,D] [D,A,D]4 [=D,A,_C]2 | %8
 [E,A,C]2 z A [B,,A,]2 [E,G,]2 |[M:3/4] A,,6 |[M:1/4] C>_C | %11
[M:4/4] B,2 [E,G,][D,G,] [E,B,]2 [E,G,E]2 | [A,,A,]A,,A,,A,, A,,2 C>C | %13
 D2 [D,A,][C,=A,] [B,,B,]2 [B,,B,]2 | %14
 [E,A,E][E,A,][E,G,E][F,A,][K:treble] .[G,B,E]2 [A,E]>[A,B,E] | %15
 [A,CE]2 [A,C][A,C] [A,C]2 [DG][E_G] |[M:5/4][K:bass] [D,D][D,D][D,D][D,D] [D,D]6 | %17
[M:4/4] [E,A,][F,A,][D,A,][E,A,] [B,,B,]2 [E,B,]2 |[M:7/8] [A,,A,]-[A,,A,]-[A,,A,]- [A,,A,]3 z |] %19
V:3
 x8 | x8 | x8 | x8 |[M:7/8] [E,E]- [E,E]3- [E,B,-E]>B, z |[M:1/8] x |[M:4/4] x8 | x8 | z2 C,2 z4 | %9
[M:3/4] x6 |[M:1/4] x2 |[M:4/4] x8 | x8 | x8 | x4[K:treble] x4 | z4 z2 A,2 |[M:5/4][K:bass] x10 | %17
[M:4/4] x8 |[M:7/8] x7 |] %19
V:4
 x8 | x8 | x8 | x8 |[M:7/8] x7 |[M:1/8] x |[M:4/4] x8 | x8 | x8 |[M:3/4] x6 |[M:1/4] x2 | %11
[M:4/4] D4 D2 z2 | B-[A,CB][A,C][A,C] [A,CE]2 E>=E | F6 z2 | z E z =D z E, c>d | z2 EE z ABc | %16
[M:5/4] FFFF [FA]6 |[M:4/4] x8 |[M:7/8] x7 |] %19
V:5
 x8 | x8 | x8 | x8 |[M:7/8] x7 |[M:1/8] x |[M:4/4] x8 | x8 | x8 |[M:3/4] x6 |[M:1/4] x2 | %11
[M:4/4] x8 | x8 | z4 =D2 z2 | x8 | z4 E2 z2 |[M:5/4] x10 |[M:4/4] x8 |[M:7/8] x7 |] %19

